dist/img/icon-dollar.svg

<svg width="5" height="8" viewBox="0 0 5 8" fill="none" xmlns="http://www.w3.org/2000/svg">
<path d="M2.20626 7.57345C2.41449 7.57345 2.58107 7.4022 2.58107 7.18813V6.50312H2.69844C3.50107 6.50312 4.15226 5.83368 4.15226 5.00855C4.15226 4.18342 3.50107 3.51398 2.69844 3.51398H1.71408C1.32791 3.51398 1.00988 3.19093 1.00988 2.79004C1.00988 2.39305 1.32412 2.06611 1.71408 2.06611H3.44807C3.6563 2.06611 3.82288 1.89486 3.82288 1.68079C3.82288 1.46672 3.6563 1.29547 3.44807 1.29547H2.58107V0.622136C2.58107 0.408069 2.41449 0.236816 2.20626 0.236816C1.99803 0.236816 1.83144 0.408069 1.83144 0.622136V1.29547H1.71408C0.911447 1.29547 0.260254 1.96491 0.260254 2.79004C0.260254 3.61517 0.911447 4.28461 1.71408 4.28461H2.69844C3.08461 4.28461 3.40264 4.60766 3.40264 5.00855C3.40264 5.40554 3.0884 5.73248 2.69844 5.73248H0.930377C0.722147 5.73248 0.555562 5.90373 0.555562 6.1178C0.555562 6.33187 0.722147 6.50312 0.930377 6.50312H1.83144V7.18813C1.83144 7.39831 1.99803 7.57345 2.20626 7.57345Z" fill="#48484C"/>
</svg>

<svg xmlns="http://www.w3.org/2000/svg" width="5" height="8" fill="none" viewBox="0 0 5 8"><path fill="#48484C" d="M2.206 7.573a.38.38 0 0 0 .375-.385v-.685h.117c.803 0 1.454-.67 1.454-1.494 0-.826-.65-1.495-1.454-1.495h-.984a.715.715 0 0 1-.704-.724c0-.397.314-.724.704-.724h1.734a.38.38 0 0 0 .375-.385.38.38 0 0 0-.375-.386h-.867V.622a.38.38 0 0 0-.375-.385.38.38 0 0 0-.375.385v.673h-.117C.911 1.295.26 1.965.26 2.79s.651 1.495 1.454 1.495h.984c.387 0 .705.323.705.724a.715.715 0 0 1-.705.723H.93a.38.38 0 0 0-.374.386c0 .214.166.385.374.385h.901v.685c0 .21.167.385.375.385"/></svg>
